src/lib/packages/icons/src/assets/filled/menu-circle-alt.svg

<svg width="24" height="24" viewBox="0 0 24 24" fill="none" xmlns="http://www.w3.org/2000/svg">
<path d="M12 2C6.477 2 2 6.477 2 12C2 17.523 6.477 22 12 22C17.523 22 22 17.523 22 12C22 6.477 17.523 2 12 2ZM13 15.75H8C7.586 15.75 7.25 15.414 7.25 15C7.25 14.586 7.586 14.25 8 14.25H13C13.414 14.25 13.75 14.586 13.75 15C13.75 15.414 13.414 15.75 13 15.75ZM16 12.75H8C7.586 12.75 7.25 12.414 7.25 12C7.25 11.586 7.586 11.25 8 11.25H16C16.414 11.25 16.75 11.586 16.75 12C16.75 12.414 16.414 12.75 16 12.75ZM16 9.75H11C10.586 9.75 10.25 9.414 10.25 9C10.25 8.586 10.586 8.25 11 8.25H16C16.414 8.25 16.75 8.586 16.75 9C16.75 9.414 16.414 9.75 16 9.75Z" fill="currentColor"/>
</svg>

<svg xmlns="http://www.w3.org/2000/svg" width="24" height="24" fill="none"><path fill="currentColor" d="M12 2C6.477 2 2 6.477 2 12s4.477 10 10 10 10-4.477 10-10S17.523 2 12 2Zm1 13.75H8a.75.75 0 0 1 0-1.5h5a.75.75 0 0 1 0 1.5Zm3-3H8a.75.75 0 0 1 0-1.5h8a.75.75 0 0 1 0 1.5Zm0-3h-5a.75.75 0 0 1 0-1.5h5a.75.75 0 0 1 0 1.5Z"/></svg>
